X: 4878
T: Braes Of Locheil, The
R: jig
M: 6/8
K: Amixolydian
|:e|"Am"A>GBA2A|"Am"a>ge d<eg|"G"G<BAG2B|"G"d>eg edB|
"Am"B<AG A2A|"Am"a>ge d<eg|"G"B<GB d>eg|"Em"B2"Am"AA2:|
|:e|"Am"a>Aa a2e|"Am"a>ge d<eg|"G"G<BA G2B|"G"d>eg e<dB|
"Am"B<AGA2A|"Am"aa/g/e d<eg|"G"B<GB d>eg|"Em"B2"Am"AA2:|

